X:1
T:Standin In The Need of Prayer
T:The Old Ark's A-Movering
T:Copyright 1918 by Homer A. Rodeheaver
T:Rodeheaver's Plantation Melodies
T:Rodeheaver's Plantation Melodies
Z:Rodeheaver's Plantation Melodies
%%score [ 1 2 3 4 ]
L:1/8
Q:1/4=100
M:4/4
K:G
V:1 treble nm="Soprano" snm="S."
V:2 treble nm="Alto" snm="A."
V:3 bass nm="Tenor" snm="T."
V:4 bass nm="Bass" snm="B."
V:1
 !fermata!BB |: G G2 G BBBB | AAAA BGGD | G G2 G BBBB |1 A2 A2 G2 [Bg]B :|2 A2 A2 G4!fine! || %6
w: ||||||
 B d2 d d- d2 | B-B d2 d3- d | g-ge-e d2 B-B | e-eB-B G2 | %10
w: See that sis- ter- *|dressed- * so fine? She|ain't- * got- * Je- sus- *|in- a her- * mind.|
 B d3 d d2"^D.C. Sing before 1st and after 4th stanza." d | B d3 d d3 | B d2 d dedc | B2 A2 G2 :| %14
w: ||||
V:2
 !fermata!BB |: G G2 G GGGG | FFFF GDDD | D D2 D GGGG |1 F2 F2 G2 BB :|2 F2 F2 G4 || B d2 d d- d2 | %7
w: O, the|old ark's a- mo- ver.- ing, a-|mo- ver- ing, a- mo- ve- ring, The|old ark's a- mo- ve- ring, And|I'm going home; O, the|I'm going home.||
 B-B d2 d3- d | g-ge-e d2 B-B | e-eB-B G2 | B d3 d d2 d | B d3 d d3 | B d2 d dedc | B2 A2 G2 :| %14
w: |||Th'old ark she releed, The|old ark she rocked,|Old ark she land- ed on the|mount- tain top.|
V:3
 z2 |: B, B,2 B, DDDD | DDDD DB,B,B, | B, B,2 B, DDDD |1 C2 C2 B,4 :|2 C2 C2 B,4 || z4 z2 z | z8 | %8
 z8 | z4 z2 | B, D3 D D2 D | B, D3 D D3 | B, D2 D DEDC | B,2 A,2 G,2 :| %14
V:4
 z2 |: G, G,2 G, G,G,G,G, | D,D,D,D, D,G,G,G, | G, G,2 G, G,G,G,G, |1 D,2 D,2 G,,4 :|2 %5
 D,2 D,2 G,,4 || z4 z2 z | z8 | z8 | z4 z2 | B, D3 D D2 D | %11
"_1. See that sister dressed so fine? She ain't got Jesus in-a her mind.\n\n2. See that brother dressed so gay?     Death's goin' a-come for to carry him away.\n\n3. See that sister coming do slow? She wants to go to Heav'n 'fore the Heaven doors close.\n\n4. Th'ain't but the one thing grieves my mind;   Sister's gone to Heav'n and left-a me behind." B, D3 D D3 | %12
 B, D2 D DEDC | B,2 A,2 G,2 :| %14

